X: 32568
T: Planxty Hugh O'Donnell
R: jig
M: 6/8
K: Gmajor
|:D|D2G GAG|F2G A2c|B2E EGE|A2D DFD|
G2D GFE|D3 d3|BGB BGB|c2d e2c|
ded BGB|cdc AFA|BcB GEG|ABA FDF|
G2D GFE|D3 d3|cBA GAF|G3 G2:|
|:G|d2G d2G|edc BAG|F2A ABA|F2A ABA|
G2B BcB|EFG FED|EFG FGA|EFG AFD|
d2d e2e|f2f g3|g2d g2c|g2B Aag|
fed ded|dcB Adc|BAG AGF|G3 G2:|

